!!!!SEGMENT: pl-gd--ee-1638--003-016_marenzio-luca--madrigali-a-quatro-voci-dolci-son-le-quardella.krn
!!!cenid: 15xx:990
!!!COM: Marenzio, Luca
!!!COM-rismID: pe30003955
!!!CDT: ~1553-1599/08/22
!!!CNT: Italian
!!!GTL: Madrigali a quatro voci
!!!OTL: Dolci son le quardella
!!!OMV: 016
!!!PDT: 1587
!!!AGN:
!!!YEC: Copyright 2022 Narodowy Instytut Fryderyka Chopina (https://polishscores.org)
!!!YEM: License CC-BY-4.0 (https://creativecommons.org/licenses/by/4.0)
!!!SMS-siglum: PL-GD
!!!SMS-shelfmark: Ee 1638
!!!SMS-shelfwork: 003-016 G
!!!SMS-variant:
!!!SMS-altvar:
!!!NIFC-rismSourceID: 1001202747
!!!NIFC-rismChildID: 990039322
!!!NIFC-islandoraID: pl-gd:57883
!!!URL-pdf-islandora: https://repozytorium.nifc.pl/islandora/object/pl-gd%3A57883/datastream/PDF/view
!!!URL-scan: https://polish.musicsources.pl/pl/lokalizacje/galeria/klocki-introligatorskie/655 @EN{Scan on Polish Music Sources Website} @PL{Skany w portalu Dziedzictwo Muzyki Polskiej w otwartym dostępie}
!!!IIIF: https://repozytorium.nifc.pl/islandora/object/pl-gd%3A57883/datastream/IIIF/view
!!!ONB-nifc: UWAGA: zbiór na stronach: Canto: s. 637-653, Alto: s. do 486-501, Tenore: s. do 334-349, Bassus: s. do 182-197. Uwaga: utwory podzielone wg tytułów w spisach treści dostępnych na końcu każdej księgi głosowej.
!!!AIN: 1 alto 1 bass 1 soprn 1 tenor
!!!key: a:aeo
**kern	**text	**mod-text	**kern	**text	**mod-text	**kern	**text	**mod-text	**kern	**text	**mod-text
*part4	*	*	*part3	*	*	*part2	*	*	*part1	*	*
*staff4	*	*	*staff3	*	*	*staff2	*	*	*staff1	*	*
*I"BASSO	*	*	*I"TENORE	*	*	*I"ALTO	*	*	*I"CANTO	*	*
*mI"Basso	*	*	*mI"Tenore	*	*	*mI"Alto	*	*	*mI"Soprano	*	*
*I'B	*	*	*I'T	*	*	*I'A	*	*	*I'S	*	*
*ICvox	*	*	*ICvox	*	*	*ICvox	*	*	*ICvox	*	*
*Ibass	*	*	*Itenor	*	*	*Ialto	*	*	*Isoprn	*	*
*clefF4	*	*	*clefC4	*	*	*clefC3	*	*	*clefC1	*	*
*mclefF4	*	*	*mclefGv2	*	*	*mclefG2	*	*	*mclefG2	*	*
*k[]	*	*	*k[]	*	*	*k[]	*	*	*k[]	*	*
*a:aeo	*	*	*a:aeo	*	*	*a:aeo	*	*	*a:aeo	*	*
*M2/1	*	*	*M2/1	*	*	*M2/1	*	*	*M2/1	*	*
*met(C)	*	*	*met(C)	*	*	*met(C)	*	*	*met(C)	*	*
=1-	=1-	=1-	=1-	=1-	=1-	=1-	=1-	=1-	=1-	=1-	=1-
*xywh-pl-gd--ee1638-8o--0190:1190,604,3445,770	*	*	*xywh-pl-gd--ee1638-8o--0342:1155,505,3493,886	*	*	*xywh-pl-gd--ee1638-8o--0494:1130,529,3414,944	*	*	*xywh-pl-gd--ee1638-8o--0646:1159,462,3362,987	*	*
!LO:TX:a:t=Prima parte.:mod=	!	!	!LO:TX:a:t=Prima parte.:mod=	!	!	!LO:TX:a:t=Prima parte.:mod=	!	!	!LO:TX:a:t=Prima parte.:mod=	!	!
0D	DOl-	Dol-	0A	DOl-	Dol-	0d	DOl-	Dol-	0f	DOl-	Dol-
.	.	.	.	.	.	.	.	.	.	.	.
=2-	=2-	=2-	=2-	=2-	=2-	=2-	=2-	=2-	=2-	=2-	=2-
1AA	-ci	-ci	1A	-ci	-ci	1c#X	-ci	-ci	1e	-ci	-ci
1D	ſon	ſon	1A	ſon	ſon	1d	ſon	ſon	1f	ſon	ſon
=3-	=3-	=3-	=3-	=3-	=3-	=3-	=3-	=3-	=3-	=3-	=3-
2D/	le	le	2A/	le	le	4d\	le	le	2f/	le	le
.	.	.	.	.	.	4e\	qua-	qua-	.	.	.
2D/	qua-	qua-	2A/	qua-	qua-	1f\	-drel-	-drel-	2f/	qua-	qua-
0C	-drel-	-drel-	0c	-drel-	-drel-	.	.	.	0g	-drel-	-drel-
.	.	.	.	.	.	4e\	.	.	.	.	.
.	.	.	.	.	.	4d\	.	.	.	.	.
=4-	=4-	=4-	=4-	=4-	=4-	=4-	=4-	=4-	=4-	=4-	=4-
.	.	.	.	.	.	1e	-la	-la	.	.	.
2.F\	-la	-la	2c\	-la	-la	2f\	ond'	ond'	2.a\	-la	-la
.	.	.	4r	.	.	2cny/	a-	a-	.	.	.
4F\	ond'	ond'	2A/	ond'	ond'	.	.	.	4a\	ond'	ond'
=5-	=5-	=5-	=5-	=5-	=5-	=5-	=5-	=5-	=5-	=5-	=5-
1D	amor	amor	.	.	.	2d\	-mor	-mor	1f	a-	a-
.	.	.	4A/	a-	a-	.	.	.	.	.	.
.	.	.	2B\	-mor	-mor	2.d\	pun-	pun-	.	.	.
1E	pu(n)-	pun-	4G#X/	pun-	pun-	.	.	.	1e	-mor	-mor
.	.	.	2A/	.	.	4c/	.	.	.	.	.
.	.	.	.	.	.	2B/	.	.	.	.	.
.	.	.	4G#X/	.	.	.	.	.	.	.	.
=6-	=6-	=6-	=6-	=6-	=6-	=6-	=6-	=6-	=6-	=6-	=6-
2AA/	-ge	-ge	2A/	-ge	-ge	2c/	-ge	-ge	1e	pu(n)-	pun-
1A\	Dol-	dol-	1c\	Dol-	dol-	1e\	Dol-	dol-	.	.	.
.	.	.	.	.	.	.	.	.	2a\	-ge	-ge
!	!	!	!	!	!	!	!	!	!	!	!
2G\	-ce	-ce	2d\	-ce	-ce	2g\	-ce	-ce	2b\	Dol-	dol-
!	!	!	!LO:MO:mod=*null:null	!	!	!LO:MO:mod=*null:null	!	!	!	!	!
*	*	*	*custos:e	*	*	*custos:g	*	*	*	*	*
!	!	!	!LO:LB:g=original	!	!	!LO:LB:g=original	!	!	!	!	!
=7-	=7-	=7-	=7-	=7-	=7-	=7-	=7-	=7-	=7-	=7-	=7-
*	*	*	*xywh-pl-gd--ee1638-8o--0342:1269,1237,3379,731	*	*	*xywh-pl-gd--ee1638-8o--0494:1161,1287,3352,653	*	*	*	*	*
8C/	brac-	brac-	2.e\	brac-	brac-	2.g\	brac-	brac-	2cc\	-ce	-ce
8D/	.	.	.	.	.	.	.	.	.	.	.
8E\	.	.	.	.	.	.	.	.	.	.	.
8F\	.	.	.	.	.	.	.	.	.	.	.
!	!	!	!	!	!	!	!	!	!	!	!
2G\	.	.	.	.	.	.	.	.	4.b\	brac-	brac-
.	.	.	4.B\	-cio	-cio	4d\	-cio	-cio	.	.	.
.	.	.	.	.	.	.	.	.	8a\	-cio	-cio
!LO:MO:mod=*null:null	!	!	!	!	!	!	!	!	!	!	!
*custos:E	*	*	*	*	*	*	*	*	*	*	*
!LO:LB:g=original	!	!	!	!	!	!	!	!	!	!	!
*xywh-pl-gd--ee1638-8o--0190:1273,1239,3330,707	*	*	*	*	*	*	*	*	*	*	*
4.E\	-cio	-cio	.	.	.	2e\	l'a-	l'a-	1g	l'a-	l'a-
.	.	.	8Gny/	l'a-	l'a-	.	.	.	.	.	.
.	.	.	2c\	-uen-	-ven-	.	.	.	.	.	.
8F\	l'a-	l'a-	.	.	.	.	.	.	.	.	.
2G\	-uen-	-ven-	.	.	.	4.d\	-uen-	-ven-	.	.	.
.	.	.	4B\	-ta	-ta	.	.	.	.	.	.
.	.	.	.	.	.	8e\	.	.	.	.	.
!	!	!	!	!	!	!	!	!	!LO:MO:mod=*null:null	!	!
*	*	*	*	*	*	*	*	*	*custos:a	*	*
!	!	!	!	!	!	!	!	!	!LO:LB:g=original	!	!
=8-	=8-	=8-	=8-	=8-	=8-	=8-	=8-	=8-	=8-	=8-	=8-
*	*	*	*	*	*	*	*	*	*xywh-pl-gd--ee1638-8o--0646:1211,1151,3290,699	*	*
8D\	.	.	1r	.	.	4.f\	.	.	4.a\	-uen-	-ven-
8E\	.	.	.	.	.	.	.	.	.	.	.
8F\	.	.	.	.	.	.	.	.	.	.	.
8G\	.	.	.	.	.	16e\	.	.	16g/	.	.
.	.	.	.	.	.	16d\	.	.	16f/	.	.
2A\	-ta	-ta	.	.	.	4c/	.	.	2e/	-ta	-ta
.	.	.	.	.	.	4c/	ta	ta	.	.	.
4r	.	.	2A/	&	e	4r	.	.	4r	.	.
4AA/	&	e	.	.	.	4c/	&	e	4e/	&	e
1E\	dol-	dol-	1G#X/	dol-	dol-	1B/	dol-	dol-	1e/	dol-	dol-
=9-	=9-	=9-	=9-	=9-	=9-	=9-	=9-	=9-	=9-	=9-	=9-
.	.	.	.	.	.	.	.	.	.	.	.
2D/	ce	ce	2A/	ce	ce	2d\	-ce	-ce	2f#X/	-ce	-ce
4.G\	&	e	4.B\	&	e	4.d\	& pie-	e pie-	4.g/	& pie-	e pie-
8F#X\	pie-	pie-	8A\	pie-	pie-	8d\	-no	-no	8a\	-no	-no
4G\	-no	-no	4B\	-no	-no	4d\	Di	ei	4g/	Di	di
4A\	Di	di	4c\	Di	di	4c/	pia-	pia-	4e/	pia-	pia-
=10-	=10-	=10-	=10-	=10-	=10-	=10-	=10-	=10-	=10-	=10-	=10-
2G\	pia-	pia-	2d\	pia-	pia-	4.B/	-cer	-cer	1g	-cer	-cer
.	.	.	.	.	.	8c/	.	.	.	.	.
4.G\	-cer	-cer	4B\	-cer	-cer	2d\	.	.	.	.	.
.	.	.	4B\	di	del	.	.	.	.	.	.
8Fny\	di	del	.	.	.	.	.	.	.	.	.
2E\	ſalu-	ſalu-	2c#X\	ſalu-	ſalu-	2r	.	.	2r	.	.
2D/	-te	-te	2d\	-te	-te	4r	.	.	4r	.	.
!	!	!	!	!	!	!	!	!	!	!	!
.	.	.	.	.	.	4d\	&	e	4a\	&	e
!	!	!	!	!	!	!LO:MO:mod=*null:null	!	!	!	!	!
*	*	*	*	*	*	*custos:g	*	*	*	*	*
!	!	!	!	!	!	!LO:LB:g=original	!	!	!	!	!
=11-	=11-	=11-	=11-	=11-	=11-	=11-	=11-	=11-	=11-	=11-	=11-
*	*	*	*	*	*	*xywh-pl-gd--ee1638-8o--0494:1057,1754,3518,705	*	*	*	*	*
2r	.	.	2r	.	.	4.g\	pie-	pie-	4.b\	pie-	pie-
.	.	.	.	.	.	8a\	-no	-no	8cc\	-no	-no
4r	.	.	4r	.	.	4g\	Di	di	4b\	Di	di
!	!	!	!	!	!	!	!	!	!	!	!
4D/	&	e	4d\	&	e	4f#X\	pia-	pia-	4a\	pia-	pia-
!LO:MO:mod=*null:null	!	!	!	!	!	!	!	!	!	!	!
*custos:G	*	*	*	*	*	*	*	*	*	*	*
!LO:LB:g=original	!	!	!	!	!	!	!	!	!	!	!
*xywh-pl-gd--ee1638-8o--0190:1148,1832,3455,645	*	*	*	*	*	*	*	*	*	*	*
4.G\	pie-	pie-	4.d\	pie-	pie-	2g\	-cer	-cer	2b\	-cer	-cer
8F#X\	-no	-no	8d\	-no	-no	.	.	.	.	.	.
4G\	Di	di	4d\	Di	di	4r	.	.	4r	.	.
!	!	!	!	!	!	!	!	!	!	!	!
4A\	pia-	pia-	4cny\	pia-	pia-	4e\	&	e	4a\	&	e
!	!	!	!LO:MO:mod=*null:null	!	!	!	!	!	!LO:MO:mod=*null:null	!	!
*	*	*	*custos:d	*	*	*	*	*	*custos:b	*	*
!	!	!	!LO:LB:g=original	!	!	!	!	!	!LO:LB:g=original	!	!
=12-	=12-	=12-	=12-	=12-	=12-	=12-	=12-	=12-	=12-	=12-	=12-
!	!	!	!	!	!	!	!	!	!	!	!
*	*	*	*xywh-pl-gd--ee1638-8o--0342:1155,1741,3482,721	*	*	*	*	*	*xywh-pl-gd--ee1638-8o--0646:1087,1799,3454,647	*	*
2G\	-cer	-cer	2d\	-cer	-cer	4.g\	pie-	pie-	4.b\	pie-	pie-
.	.	.	.	.	.	8f#X\	-no	-no	8a\	-no	-no
!	!	!	!	!	!	!	!	!	!	!	!
2r	.	.	2r	.	.	4g\	Di	di	4b\	Di	di
.	.	.	.	.	.	4a\	pia-	pia-	4cc\	pia-	pia-
4.G\	di	del	4B\	di	del	1g	-cer	-cer	2dd\	-cer	-cer
.	.	.	4c\	ſa-	ſa-	.	.	.	.	.	.
8Fny\	ſa-	ſa-	.	.	.	.	.	.	.	.	.
2E\	-lu-	-lu-	2c#X\	-lu-	-lu-	.	.	.	2r	.	.
=13-	=13-	=13-	=13-	=13-	=13-	=13-	=13-	=13-	=13-	=13-	=13-
2D/	te	te	2d\	te	te	4.fny\	di	del	4a\	di	del
.	.	.	.	.	.	.	.	.	4a\	ſa-	ſa-
.	.	.	.	.	.	8e\	ſa-	ſa-	.	.	.
2r	.	.	2r	.	.	2d\	-lu-	-lu-	2b\	-lu-	-lu-
1r	.	.	4r	.	.	2c/	te	te	4.cc\	.	.
.	.	.	4e\	e'l	e'l	.	.	.	.	.	.
.	.	.	.	.	.	.	.	.	16b\	.	.
.	.	.	.	.	.	.	.	.	16a\	.	.
.	.	.	4d#X\	ſuo	ſuo	4r	.	.	2b\	te	te
.	.	.	4e\	ve-	ve-	4g\	e'l	e'l	.	.	.
=14-	=14-	=14-	=14-	=14-	=14-	=14-	=14-	=14-	=14-	=14-	=14-
2A\	e'l	e'l	4c#X\	-ne-	-ne-	4e\	ſuo	ſuo	1r	.	.
.	.	.	2dny\	.	.	4f\	ve-	ve-	.	.	.
!	!	!	!	!	!	!	!	!	!	!	!
4G#X\	ſuo	ſuo	.	.	.	2e\	-ne-	-ne-	.	.	.
4A\	ve-	ve-	4c#X\	.	.	.	.	.	.	.	.
!	!	!	!	!	!	!LO:MO:mod=*null:null	!	!	!	!	!
*	*	*	*	*	*	*custos:A	*	*	*	*	*
!	!	!	!	!	!	!LO:LB:g=original	!	!	!	!	!
*	*	*	*	*	*	*xywh-pl-gd--ee1638-8o--0494:1203,2283,3290,695	*	*	*	*	*
4F#X\	-ne-	-ne-	4.d\	-no	-no	4A/	-no	-no	2dd\	e'l	e'l
2Gny\	.	.	.	.	.	4d\	e'l	e'l	.	.	.
.	.	.	16cny\	.	.	.	.	.	.	.	.
.	.	.	16B\	.	.	.	.	.	.	.	.
.	.	.	2A/	.	.	4e\	ſuo	ſuo	4cc#X\	ſuo	ſuo
4F#X\	.	.	.	.	.	4d\	ve-	ve-	4dd\	ve-	ve-
=15-	=15-	=15-	=15-	=15-	=15-	=15-	=15-	=15-	=15-	=15-	=15-
1G	-no	-no	1r	.	.	1d	-ne-	-ne-	4b\	-ne-	-ne-
.	.	.	.	.	.	.	.	.	2ccny\	.	.
.	.	.	.	.	.	.	.	.	4b\	.	.
2r	.	.	2r	.	.	2c/	-no	-no	2cc\	-no	-no
2C/	Et	e	2c\	Et	e	2e\	Et	e	2g/	Et	e
=16-	=16-	=16-	=16-	=16-	=16-	=16-	=16-	=16-	=16-	=16-	=16-
1.E	dol-	dol-	1.B	dol-	dol-	1.e	dol-	dol-	1.g#X	dol-	dol-
.	.	.	.	.	.	.	.	.	.	.	.
!	!	!	!	!	!	!	!	!	!	!	!
2C#X/	-ce il	-ce il	2A/	-ce il	-ce il	2e\	-ce il	-ce il	2a\	-ce il	-ce il
!LO:MO:mod=*null:null	!	!	!LO:MO:mod=*null:null	!	!	!	!	!	!LO:MO:mod=*null:null	!	!
*custos:D	*	*	*custos:A	*	*	*	*	*	*custos:f	*	*
!LO:LB:g=original	!	!	!LO:LB:g=original	!	!	!	!	!	!LO:LB:g=original	!	!
=17-	=17-	=17-	=17-	=17-	=17-	=17-	=17-	=17-	=17-	=17-	=17-
*xywh-pl-gd--ee1638-8o--0190:1221,2373,3372,614	*	*	*xywh-pl-gd--ee1638-8o--0342:1217,2267,3462,783	*	*	*	*	*	*xywh-pl-gd--ee1638-8o--0646:1180,2344,3434,668	*	*
1D	gio-	gio-	1A	giog'	giog'	1d	giog'	giog'	1fny	gio-	gio-
2AA/	-go	-go	4A/	ond'	ond'	2c/	ond'	ond'	2e/	-go	-go
.	.	.	2e\	ei	ei	.	.	.	.	.	.
2A\	ond'	ond'	.	.	.	2e\	ei	ei	2cc\	ond'	ond'
.	.	.	2c\	le-	le-	.	.	.	.	.	.
=18-	=18-	=18-	=18-	=18-	=18-	=18-	=18-	=18-	=18-	=18-	=18-
2Fny\	ei	ei	.	.	.	2A/	le-	le-	2a\	ei	ei
.	.	.	2A/	-ga	-ga	.	.	.	.	.	.
2D/	le-	le-	.	.	.	4d\	-ga	-ga	2f#X/	lega	lega
.	.	.	2D/	ond'	ond'	4d\	ond'	ond'	.	.	.
2GG/	-ga	-ga	.	.	.	2B/	ei	ei	2gny/	ond'	ond'
.	.	.	2d\	ei	ei	.	.	.	.	.	.
2G\	ond'ei	ond'ei	.	.	.	2d\	le-	le-	1b\	ei	ei
.	.	.	2B\	le-	le-	.	.	.	.	.	.
=19-	=19-	=19-	=19-	=19-	=19-	=19-	=19-	=19-	=19-	=19-	=19-
2E\	lega	lega	.	.	.	1.e	-ga	-ga	.	.	.
.	.	.	2Gny/	-ga	-ga	.	.	.	.	.	.
1Cny/	&	e	.	.	.	.	.	.	4cc\	lega	lega
.	.	.	2c\	&	e	.	.	.	2g/	&	e
.	.	.	.	.	.	.	.	.	.	.	.
.	.	.	2A/	con-	con-	.	.	.	4a\	co(n)-	con-
2D/	co(n)-	con-	.	.	.	2d\	&	e	2fny/	-giun-	-giun-
.	.	.	2B\	-giun-	-giun-	.	.	.	.	.	.
=20-	=20-	=20-	=20-	=20-	=20-	=20-	=20-	=20-	=20-	=20-	=20-
1E	-giun-	-giun-	.	.	.	4.c/	con-	con-	0e	-ge	-ge
.	.	.	2A/	.	.	.	.	.	.	.	.
.	.	.	.	.	.	16B/	.	.	.	.	.
.	.	.	.	.	.	16A/	.	.	.	.	.
.	.	.	.	.	.	2B/	-giun-	-giun-	.	.	.
.	.	.	4G#X/	.	.	.	.	.	.	.	.
!	!	!	!	!	!	!	!	!	!	!	!
1AA	-ge	-ge	0A	-ge	-ge	1c#X	-ge	-ge	.	.	.
!	!	!	!	!	!	!LO:MO:mod=*null:null	!	!	!	!	!
*	*	*	*	*	*	*custos:d	*	*	*	*	*
!	!	!	!	!	!	!LO:LB:g=original	!	!	!	!	!
=21-	=21-	=21-	=21-	=21-	=21-	=21-	=21-	=21-	=21-	=21-	=21-
*	*	*	*	*	*	*xywh-pl-gd--ee1638-8o--0494:1140,2875,3404,643	*	*	*	*	*
2D/	Qua(n)t'	quant'	.	.	.	1.d	Quant'	quant'	1.f	Qua(n)t'	quant'
2C/	io	io	.	.	.	.	.	.	.	.	.
0BB-X	do(n)-	don-	2D/	Qua(n)t'	quant'	.	.	.	.	.	.
.	.	.	2E/	io	io	2cny/	io	io	2e/	io	io
=22-	=22-	=22-	=22-	=22-	=22-	=22-	=22-	=22-	=22-	=22-	=22-
.	.	.	1F	do(n)-	don-	1B-X	do(n)-	don-	1d	do(n)-	don-
4FF/	-na	-na	2F/	-na	-na	4A/	-na	-na	1c	-na	-na
4F\	da	da	.	.	.	4a\	da	da	.	.	.
4F\	lui	lui	4r	.	.	4a\	lui	lui	.	.	.
4.F\	viſ-	viſ-	4c\	da	da	4.a\	viſ-	viſ-	.	.	.
=23-	=23-	=23-	=23-	=23-	=23-	=23-	=23-	=23-	=23-	=23-	=23-
.	.	.	4c\	lui	lui	.	.	.	4r	.	.
8F\	-ſi	-ſi	.	.	.	8a\	-ſi	-ſi	.	.	.
4E\	non	non	4.c\	viſ-	viſ-	2g\	non	non	4cc\	da	da
2A\	lun-	lun-	.	.	.	.	.	.	4cc\	lui	lui
.	.	.	8c\	-ſi	-ſi	.	.	.	.	.	.
!	!	!	!	!	!	!	!	!	!	!	!
.	.	.	4A/	non	non	4f#X\	lun-	lun-	4.cc\	viſ-	viſ-
!	!	!	!LO:MO:mod=*null:null	!	!	!	!	!	!	!	!
*	*	*	*custos:d	*	*	*	*	*	*	*	*
!	!	!	!LO:LB:g=original	!	!	!	!	!	!	!	!
!	!	!	!	!	!	!	!	!	!	!	!
*	*	*	*xywh-pl-gd--ee1638-8o--0342:1093,2875,3503,669	*	*	*	*	*	*	*	*
2G\	-ge	-ge	2d\	lun-	lun-	1g	-ge	-ge	.	.	.
.	.	.	.	.	.	.	.	.	8cc\	-ſi	-ſi
.	.	.	.	.	.	.	.	.	4b\	non	non
!	!	!	!	!	!	!	!	!	!	!	!
*	*	*	*	*	*	*	*	*	*	*	*
2r	.	.	2c\	-ge	-ge	.	.	.	2ee\	lun-	lun-
!LO:MO:mod=*null:null	!	!	!	!	!	!	!	!	!LO:MO:mod=*null:null	!	!
*custos:G	*	*	*	*	*	*	*	*	*custos:dd	*	*
!LO:LB:g=original	!	!	!	!	!	!	!	!	!LO:LB:g=original	!	!
=24-	=24-	=24-	=24-	=24-	=24-	=24-	=24-	=24-	=24-	=24-	=24-
*xywh-pl-gd--ee1638-8o--0190:1263,2883,3330,655	*	*	*	*	*	*	*	*	*xywh-pl-gd--ee1638-8o--0646:1046,2745,3485,750	*	*
2.G\	Quan-	quan-	4r	.	.	4r	.	.	2dd\	-ge	-ge
.	.	.	2B\	Quan-	quan-	2d\	Qua(n)-	quan-	.	.	.
.	.	.	.	.	.	.	.	.	2g/	Quan-	quan-
2C/	-to	-to	2c\	-to	-to	2e\	-to	-to	.	.	.
.	.	.	.	.	.	.	.	.	4g/	-to	-to
4D/	por-	por-	4A/	por-	por-	4d\	por-	por-	4f/	por-	por-
1E\	-tai	-tai	1G#X/	-tai	-tai	1Bny/	-tai	-tai	1e/	-tai	-tai
=25-	=25-	=25-	=25-	=25-	=25-	=25-	=25-	=25-	=25-	=25-	=25-
.	.	.	.	.	.	.	.	.	.	.	.
4AA/	ſuo	ſuo	4A/	ſuo	ſuo	4c/	ſuo	ſuo	4e/	ſuo	ſuo
2AA/	dol-	dol-	2c\	dol-	dol-	2e\	dol-	dol-	2a\	dol-	dol-
.	.	.	.	.	.	.	.	.	.	.	.
4BBny/	-ce	-ce	4B\	-ce	-ce	4d\	-ce	-ce	4g/	-ce	-ce
4C/	foc'	foc'	4Gny/	foc'	foc'	4e\	foc'	foc'	4g/	foc'	foc'
4AA/	in	in	4c\	in	in	4f#X\	in	in	4a\	in	in
=26-	=26-	=26-	=26-	=26-	=26-	=26-	=26-	=26-	=26-	=26-	=26-
2GG/	ſe-	ſe-	2d\	ſe-	ſe-	2g\	ſe-	ſe-	2b\	ſe-	ſe-
!	!	!	!	!	!	!	!	!	!	!	!
2GG/	-no	-no	2d\	-no	-no	2g\	-no	-no	2b\	-no	-no
!	!	!	!	!	!	!LO:MO:mod=*null:null	!	!	!	!	!
*	*	*	*	*	*	*custos:g	*	*	*	*	*
!	!	!	!	!	!	!LO:LB:g=original	!	!	!	!	!
*	*	*	*	*	*	*xywh-pl-gd--ee1638-8o--0494:974,3342,3591,716	*	*	*	*	*
1r	.	.	4r	.	.	4r	.	.	4r	.	.
.	.	.	4.c\	Tan-	Tan-	4.g\	Tan-	Tan-	4.ee\	Tan-	Tan-
.	.	.	8B\	-to	-to	8g\	-to	-to	8dd\	-to	-to
.	.	.	4c\	fu'l	fu'l	4e\	fu'l	fu'l	4ee\	fu'l	fu'l
=27-	=27-	=27-	=27-	=27-	=27-	=27-	=27-	=27-	=27-	=27-	=27-
0r	.	.	4d\	vi-	vi-	4fny\	vi-	vi-	4.dd\	vi-	vi-
.	.	.	4d\	-uer	-ver	4a\	-uer	-ver	.	.	.
.	.	.	.	.	.	.	.	.	8cc\	-uer	-ver
.	.	.	4e\	mio	mio	4g#X\	mio	mio	4b\	mio	mio
!	!	!	!	!	!	!	!	!	!	!	!
.	.	.	4.A/	lie-	lie-	2a\	lie-	lie-	2cc\	lie-	lie-
!	!	!	!	!	!	!	!	!	!	!	!
.	.	.	.	.	.	.	.	.	.	.	.
.	.	.	8A/	to e	to e	.	.	.	.	.	.
!	!	!	!	!	!	!	!	!	!LO:MO:mod=*null:null	!	!
*	*	*	*	*	*	*	*	*	*custos:b	*	*
!	!	!	!	!	!	!	!	!	!LO:LB:g=original	!	!
*	*	*	*	*	*	*	*	*	*xywh-pl-gd--ee1638-8o--0646:1098,3321,3413,760	*	*
.	.	.	4B\	ſe-	ſe-	8gny\	.	.	8b\	.	.
.	.	.	.	.	.	8f\	.	.	8a\	.	.
!	!	!	!LO:MO:mod=*null:null	!	!	!	!	!	!	!	!
*	*	*	*custos:c	*	*	*	*	*	*	*	*
!	!	!	!LO:LB:g=original	!	!	!	!	!	!	!	!
*	*	*	*xywh-pl-gd--ee1638-8o--0342:1217,3369,3451,752	*	*	*	*	*	*	*	*
.	.	.	8c\	-re-	-re-	4e\	.	.	4g/	.	.
.	.	.	8B\	.	.	.	.	.	.	.	.
.	.	.	8A/	.	.	2f\	-to	-to	2a\	-to	-to
.	.	.	8G/	.	.	.	.	.	.	.	.
=28-	=28-	=28-	=28-	=28-	=28-	=28-	=28-	=28-	=28-	=28-	=28-
1r	.	.	4.F/	.	.	.	.	.	.	.	.
.	.	.	.	.	.	4d\	e ſe-	e ſe-	4f/	e ſe-	e ſe-
.	.	.	8G/	.	.	.	.	.	.	.	.
.	.	.	2A/	.	.	2c#X/	-re-	-re-	2e/	-re-	-re-
2r	.	.	1D	no	no	1d	-no	-no	2d/	-no	-no
2D/	Et	E	.	.	.	.	.	.	2a\	Et	e
=29-	=29-	=29-	=29-	=29-	=29-	=29-	=29-	=29-	=29-	=29-	=29-
1G	fia	fia	2r	.	.	2r	.	.	0b	fia	fia
.	.	.	2B\	Et	E	2d\	Et	E	.	.	.
2r	.	.	0e	fia	fia	0g	fia	fia	.	.	.
2E\	Et	e	.	.	.	.	.	.	.	.	.
=30-	=30-	=30-	=30-	=30-	=30-	=30-	=30-	=30-	=30-	=30-	=30-
1.c	fia	fia	.	.	.	.	.	.	2r	.	.
.	.	.	.	.	.	.	.	.	2e/	Et	E
.	.	.	2A/	fin	fin	4r	.	.	2ee\	fia	fia
.	.	.	.	.	.	2a\	fin	fin	.	.	.
2B\	fin	fin	2B\	che	che	.	.	.	2dd\	fin	fin
.	.	.	.	.	.	2g\	che	che	.	.	.
=31-	=31-	=31-	=31-	=31-	=31-	=31-	=31-	=31-	=31-	=31-	=31-
2A\	che	che	2c\	la	la	.	.	.	2cc\	che	che
.	.	.	.	.	.	2f\	la	la	.	.	.
2G\	la	la	4d\	uita	vi-	.	.	.	2b\	la	la
.	.	.	4B\	al	-ta al	2e\	uita	vi-	.	.	.
2F\	uita	vi-	4c\	ſuo	ſuo	.	.	.	2a\	uita	vi-
!	!	!	!	!	!	!	!	!	!	!	!
.	.	.	4A/	fin	fin	2d\	al	-ta al	.	.	.
!	!	!	!	!	!	!	!	!	!	!	!
2E\	al	-ta al	4B\	giun-	giun-	.	.	.	2g/	al	-ta al
!	!	!	!	!	!	!LO:MO:mod=*null:null	!	!	!	!	!
*	*	*	*	*	*	*custos:c	*	*	*	*	*
!	!	!	!	!	!	!LO:LB:g=original	!	!	!	!	!
*	*	*	*	*	*	*xywh-pl-gd--ee1638-8o--0494:1057,3871,3456,726	*	*	*	*	*
.	.	.	4G/	-ge	-ge	2cny\	ſuo	ſuo	.	.	.
!LO:MO:mod=*null:null	!	!	!	!	!	!	!	!	!	!	!
*custos:D	*	*	*	*	*	*	*	*	*	*	*
!LO:LB:g=original	!	!	!	!	!	!	!	!	!	!	!
=32-	=32-	=32-	=32-	=32-	=32-	=32-	=32-	=32-	=32-	=32-	=32-
*xywh-pl-gd--ee1638-8o--0190:1127,3404,3403,718	*	*	*	*	*	*	*	*	*	*	*
2D/	ſuo	ſuo	4r	.	.	.	.	.	2f/	ſuo	ſuo
.	.	.	4d\	al	al	2B/	fin	fin	.	.	.
2C/	fin	fin	4G/	ſuo	ſuo	.	.	.	2e/	fin	fin
.	.	.	4A/	fin	fin	2A/	giun-	giun-	.	.	.
!	!	!	!	!	!	!	!	!	!	!	!
1BB	giun-	giun-	1B	giu(n)-	giun-	.	.	.	1d	giun-	giun-
.	.	.	.	.	.	8G/	.	.	.	.	.
.	.	.	.	.	.	8F#X/	.	.	.	.	.
.	.	.	.	.	.	2G#X/	.	.	.	.	.
!	!	!	!LO:MO:mod=*null:null	!	!	!	!	!	!LO:MO:mod=*null:null	!	!
*	*	*	*custos:E	*	*	*	*	*	*custos:c	*	*
!	!	!	!LO:LB:g=original	!	!	!	!	!	!LO:LB:g=original	!	!
=33-	=33-	=33-	=33-	=33-	=33-	=33-	=33-	=33-	=33-	=33-	=33-
*	*	*	*xywh-pl-gd--ee1638-8o--0342:1124,3885,3462,772	*	*	*	*	*	*xywh-pl-gd--ee1638-8o--0646:1159,3897,3321,709	*	*
1AA	-ge	-ge	2E/	-ge	-ge	2A/	-ge	-ge	1c#X	-ge	-ge
.	.	.	4r	.	.	2e\	Et	e	.	.	.
.	.	.	4A/	Et	e	.	.	.	.	.	.
2r	.	.	1d	fia	fia	1f	fia	fia	2r	.	.
2D/	Et	e	.	.	.	.	.	.	4r	.	.
.	.	.	.	.	.	.	.	.	4a\	Et	e
=34-	=34-	=34-	=34-	=34-	=34-	=34-	=34-	=34-	=34-	=34-	=34-
1G	fia	fia	2r	.	.	2r	.	.	0b	fia	fia
.	.	.	2B\	Et	e	2d\	Et	e	.	.	.
2r	.	.	0e	fia	fia	0g	fia	fia	.	.	.
2E\	Et	e	.	.	.	.	.	.	.	.	.
=35-	=35-	=35-	=35-	=35-	=35-	=35-	=35-	=35-	=35-	=35-	=35-
1.c	fia	fia	.	.	.	.	.	.	2r	.	.
.	.	.	.	.	.	.	.	.	2e/	Et	e
.	.	.	2A/	fin	fin	4r	.	.	2ee\	fia	fia
.	.	.	.	.	.	2a\	fin	fin	.	.	.
2B\	fin	fin	2B\	che	che	.	.	.	2dd\	fin	fin
.	.	.	.	.	.	2g\	che	che	.	.	.
=36-	=36-	=36-	=36-	=36-	=36-	=36-	=36-	=36-	=36-	=36-	=36-
2A\	che	che	2c\	la	la	.	.	.	2cc\	che	che
.	.	.	.	.	.	2f\	la	la	.	.	.
2G\	la	la	4d\	vi-	vi-	.	.	.	2b\	la	la
.	.	.	4B\	-ta al	-ta al	2e\	vita	vita	.	.	.
2F\	vita	vita	4c\	ſuo	ſuo	.	.	.	2a\	vita	vita
.	.	.	4A/	fin	fin	2d\	al	al	.	.	.
2E\	al	al	4B\	giun-	giun-	.	.	.	2g/	al	al
.	.	.	4G/	-ge	-ge	2c/	ſuo	ſuo	.	.	.
=37-	=37-	=37-	=37-	=37-	=37-	=37-	=37-	=37-	=37-	=37-	=37-
2D/	ſuo	ſuo	4r	.	.	.	.	.	2f/	ſuo	ſuo
.	.	.	4d\	al	al	2B/	fin	fin	.	.	.
2C/	-fin	-fin	4G/	ſuo	ſuo	.	.	.	2e/	fin	fin
.	.	.	4A/	fin	fin	2A/	giun-	giun-	.	.	.
1BB	giun-	giun-	1B	giun-	giun-	.	.	.	1d	giun-	giun-
.	.	.	.	.	.	8A/	.	.	.	.	.
.	.	.	.	.	.	8F#X/	.	.	.	.	.
.	.	.	.	.	.	2G#X/	.	.	.	.	.
=38-	=38-	=38-	=38-	=38-	=38-	=38-	=38-	=38-	=38-	=38-	=38-
0AAl/	-ge.	-ge.	0El/	-ge.	-ge.	0Al/	-ge.	-ge.	0c#Xl/	-ge.	-ge.
==	==	==	==	==	==	==	==	==	==	==	==
*-	*-	*-	*-	*-	*-	*-	*-	*-	*-	*-	*-
!!!system-decoration: [(s1,s2,s3,s4)]
!!!RDF**kern: l = terminal long
!!!filter-modern: shed -e "s/:t=P:/:T=P:/L"
!!!filter-modern: shed -e "s/-//B"
!!!filter-modern: shed -e "s/^(\d+[\/\\]right)/$1yy/I; s/^(\d+[\/\\]left)/$1yy/I"
!!!filter-modern: shed -e "s/yy//"
!!!filter-modern: shed -k -e "s/\(y(?!y)/(/"
!!!filter-modern: shed -k -e "s/([\(\)\[\]])[><]/$1/g"
!!!filter-modern: shed -k -e "s/([()[]_])[><]/$1/g"
!!!filter-modern: tie -s
!!!filter-modern: shed -e "s/^(X?)rep$/$1REP/I"
!!!filter-modern: shed -k -e "s/^(X?)tuplet/$1TUPLET/I"
!!!filter-modern: shed -e "s/LO:DY:(a|b|rj)/LO:dy:$1/L"
!!!filter-modern: shed -e "s/LO:HP:(a|b)/LO:hp:$1/L"
!!!filter-modern: shed -k -e "s/r[a-gA-G]+/r/D"
!!!filter-modern: shed -k -e "s/([^a-gA-Gn#-])[<>]/$1/g"
!!!filter-modern: sic -sq
!!!filter-modern: autostem -r
!!!filter-modern: modori -m
!!!filter-modern: humtr -p
!!!ENC: Marta Opryszak
!!!END: 2022-06-27
!!!EED: Natalia Wrzos
!!!EEV: 2022-07-13
!!!ENC-iiif: Zuzanna Daniec
!!!END-iiif: 2022-09-10
!!!ENC-modern: Krzysztof Stępień
!!!END-modern: 2022-11-08
